X:1
T: The Laughing Saguaro
C:Gordy Euler
R:Jig
Q: 180
K:D
M:6/8
L:1/16
|:F2D2D2 A2D2D2|d2A2F2 D2F2A2|B2G2B2 B2c2d2|A2F2D2 G2E2G2|
F2D2D2 A2D2D2|d2A2F2 D2F2A2|B2G2B2 c2A2c2|d2D2D2 D6:|
|:d2c2B2 A2F2A2|B2G2B2 c2A2c2|d2D2D2 A2G2F2|E2G2B2 c2B2c2|
d2c2B2 A2F2A2|B2G2B2 c2d2e2|f2d2c2 d2B2c2|d2D2D2 D6:|
